;FLAVOR:Marlin
;Print time:01:40
;Filament used: 0m
;Layer height: 0.3
;MINX:2.14748e+06
;MINY:2.14748e+06
;MINZ:2.14748e+06
;MAXX:-2.14748e+06
;MAXY:-2.14748e+06
;MAXZ:-2.14748e+06

;Generated with Cura_SteamEngine master
M104 S230
M82 ;absolute extrusion mode
;Basic settings:; Layer height: 0.3 ; Walls: 4 ; Fill: 18 ; Speed: 70 ; Temperature: 220 ; Filament Diameter: 1.75 ; Support Structures: false ; Support Angle: {support_angle}
;Print time: 01:40
;Print weight: 33g
M104 S230
T0
G28
G90
M106 S0
G92 E0
G1 Z0.5 F2000
M109 S230
G1 Z0.2 E0 F2000
G1 X65 E7 F1500
G1 X12 Y2 E14 F1500

G92 E0
G92 E0
G1 F3600 E-0.7
;LAYER_COUNT:153
;LAYER:0
M107
G0 F3600 X152.603 Y93.816 Z0.25
;TYPE:SKIRT
G1 F3600 E0.04158
G1 F1800 X152.875 Y93.521 E0.05401
G1 X153.164 Y93.287 E0.06553
G1 X153.497 Y93.121 E0.07706
G1 X153.857 Y93.03 E0.08857
G1 X154.255 Y93.013 E0.10091
G1 X154.295 Y92.488 E0.11723
G1 X154.413 Y92.136 E0.12874
G1 X154.603 Y91.816 E0.14027
G1 X154.875 Y91.521 E0.1527
G1 X155.164 Y91.287 E0.16423
G1 X155.497 Y91.121 E0.17576
G1 X155.857 Y91.03 E0.18726
G1 X156.1 Y91.013 E0.19481
G1 X199.676 Y91.013 E1.54516
G1 X200.046 Y91.053 E1.5567
G1 X200.398 Y91.171 E1.5682
G1 X200.718 Y91.361 E1.57973
G1 X201.013 Y91.633 E1.59217
G1 X201.247 Y91.922 E1.60369
G1 X201.413 Y92.255 E1.61522
G1 X201.504 Y92.615 E1.62673
G1 X201.521 Y92.858 E1.63428
G1 X201.521 Y136.434 E2.98463
G1 X201.481 Y136.804 E2.99616
G1 X201.363 Y137.156 E3.00767
G1 X201.173 Y137.476 E3.0192
G1 X200.901 Y137.771 E3.03163
G1 X200.612 Y138.005 E3.04316
G1 X200.279 Y138.171 E3.05469
G1 X199.919 Y138.262 E3.06619
G1 X199.676 Y138.279 E3.07374
G1 X158.521 Y138.279 E4.34907
G1 X158.481 Y138.804 E4.36539
G1 X158.363 Y139.156 E4.37689
G1 X158.173 Y139.476 E4.38843
G1 X157.901 Y139.771 E4.40086
G1 X157.612 Y140.005 E4.41238
G1 X157.279 Y140.171 E4.42392
G1 X156.919 Y140.262 E4.43542
G1 X156.676 Y140.279 E4.44297
G1 X154.1 Y140.279 E4.5228
G1 X153.73 Y140.239 E4.53433
G1 X153.378 Y140.121 E4.54583
G1 X153.058 Y139.931 E4.55737
G1 X152.763 Y139.659 E4.5698
G1 X152.529 Y139.37 E4.58132
G1 X152.363 Y139.037 E4.59285
G1 X152.272 Y138.677 E4.60436
G1 X152.255 Y138.434 E4.61191
G1 X152.255 Y94.858 E5.96226
G1 X152.295 Y94.488 E5.9738
G1 X152.413 Y94.136 E5.9853
G1 X152.603 Y93.816 E5.99683
G0 F3600 X152.797 Y94.227
G1 F1800 X153.147 Y93.793 E6.01411
G1 X153.405 Y93.591 E6.02426
G1 X153.704 Y93.457 E6.03442
G1 X154.1 Y93.398 E6.04682
G1 X154.64 Y93.398 E6.06356
G1 X154.64 Y92.858 E6.08029
G1 X154.68 Y92.533 E6.09044
G1 X154.797 Y92.227 E6.10059
G1 X155.147 Y91.793 E6.11787
G1 X155.405 Y91.591 E6.12802
G1 X155.704 Y91.457 E6.13818
G1 X156.1 Y91.398 E6.15058
G1 X199.676 Y91.398 E7.50094
G1 X200.001 Y91.438 E7.51108
G1 X200.307 Y91.555 E7.52124
G1 X200.741 Y91.905 E7.53851
G1 X200.943 Y92.163 E7.54867
G1 X201.077 Y92.462 E7.55882
G1 X201.136 Y92.858 E7.57123
G1 X201.136 Y136.434 E8.92158
G1 X201.096 Y136.759 E8.93173
G1 X200.979 Y137.065 E8.94188
G1 X200.629 Y137.499 E8.95916
G1 X200.371 Y137.701 E8.96931
G1 X200.072 Y137.835 E8.97947
G1 X199.676 Y137.894 E8.99187
G1 X158.136 Y137.894 E10.27913
G1 X158.136 Y138.434 E10.29587
G1 X158.096 Y138.759 E10.30601
G1 X157.979 Y139.065 E10.31617
G1 X157.629 Y139.499 E10.33344
G1 X157.371 Y139.701 E10.3436
G1 X157.072 Y139.835 E10.35375
G1 X156.676 Y139.894 E10.36616
G1 X154.1 Y139.894 E10.44598
G1 X153.775 Y139.854 E10.45613
G1 X153.469 Y139.737 E10.46628
G1 X153.035 Y139.387 E10.48356
G1 X152.833 Y139.129 E10.49371
G1 X152.699 Y138.83 E10.50387
G1 X152.64 Y138.434 E10.51628
G1 X152.64 Y94.858 E11.86663
G1 X152.68 Y94.533 E11.87678
G1 X152.797 Y94.227 E11.88693
G0 F3600 X153.181 Y94.333
G1 F1800 X153.419 Y94.065 E11.89803
G1 X153.641 Y93.899 E11.90662
G1 X153.901 Y93.804 E11.9152
G1 X154.1 Y93.783 E11.9214
G1 X155.025 Y93.783 E11.95007
G1 X155.025 Y92.858 E11.97873
G1 X155.065 Y92.584 E11.98731
G1 X155.181 Y92.333 E11.99588
G1 X155.419 Y92.065 E12.00699
G1 X155.641 Y91.899 E12.01558
G1 X155.901 Y91.804 E12.02416
G1 X156.1 Y91.783 E12.03036
G1 X199.676 Y91.783 E13.38071
G1 X199.95 Y91.823 E13.38929
G1 X200.201 Y91.939 E13.39786
G1 X200.469 Y92.177 E13.40897
G1 X200.635 Y92.399 E13.41756
G1 X200.73 Y92.659 E13.42614
G1 X200.751 Y92.858 E13.43234
G1 X200.751 Y136.434 E14.78269
G1 X200.711 Y136.708 E14.79127
G1 X200.595 Y136.959 E14.79984
G1 X200.357 Y137.227 E14.81095
G1 X200.135 Y137.393 E14.81954
G1 X199.875 Y137.488 E14.82811
G1 X199.676 Y137.509 E14.83432
G1 X157.751 Y137.509 E16.13351
G1 X157.751 Y138.434 E16.16217
G1 X157.711 Y138.708 E16.17075
G1 X157.595 Y138.959 E16.17932
G1 X157.357 Y139.227 E16.19043
G1 X157.135 Y139.393 E16.19902
G1 X156.875 Y139.488 E16.2076
G1 X156.676 Y139.509 E16.2138
G1 X154.1 Y139.509 E16.29362
G1 X153.826 Y139.469 E16.3022
G1 X153.575 Y139.353 E16.31077
G1 X153.307 Y139.115 E16.32188
G1 X153.141 Y138.893 E16.33047
G1 X153.046 Y138.633 E16.33905
G1 X153.025 Y138.434 E16.34525
G1 X153.025 Y94.858 E17.6956
G1 X153.065 Y94.584 E17.70418
G1 X153.181 Y94.333 E17.71275
G0 F3600 X153.45 Y94.648
G1 F1800 X153.691 Y94.337 E17.72494
G1 X153.868 Y94.217 E17.73157
G1 X154.1 Y94.168 E17.73892
G1 X155.41 Y94.168 E17.77951
G1 X155.41 Y92.858 E17.82011
G1 X155.45 Y92.648 E17.82673
G1 X155.691 Y92.337 E17.83893
G1 X155.868 Y92.217 E17.84555
G1 X156.1 Y92.168 E17.8529
G1 X199.676 Y92.168 E19.20325
G1 X199.886 Y92.208 E19.20988
G1 X200.197 Y92.449 E19.22207
G1 X200.317 Y92.626 E19.2287
G1 X200.366 Y92.858 E19.23604
G1 X200.366 Y136.434 E20.5864
G1 X200.326 Y136.644 E20.59302
G1 X200.085 Y136.955 E20.60522
G1 X199.908 Y137.075 E20.61184
G1 X199.676 Y137.124 E20.61919
G1 X157.366 Y137.124 E21.93031
G1 X157.366 Y138.434 E21.97091
G1 X157.326 Y138.644 E21.97753
G1 X157.085 Y138.955 E21.98972
G1 X156.908 Y139.075 E21.99635
G1 X156.676 Y139.124 E22.0037
G1 X154.1 Y139.124 E22.08352
G1 X153.89 Y139.084 E22.09015
G1 X153.579 Y138.843 E22.10234
G1 X153.459 Y138.666 E22.10897
G1 X153.41 Y138.434 E22.11632
G1 X153.41 Y94.858 E23.46667
G1 X153.45 Y94.648 E23.47329
G0 F3600 X153.852 Y94.722
G1 F1800 X153.964 Y94.61 E23.4782
G1 X154.1 Y94.553 E23.48277
G1 X155.795 Y94.553 E23.5353
G1 X155.795 Y92.858 E23.58782
G1 X155.852 Y92.722 E23.59239
G1 X155.964 Y92.61 E23.5973
G1 X156.1 Y92.553 E23.60187
G1 X199.676 Y92.553 E24.95222
G1 X199.812 Y92.61 E24.95679
G1 X199.924 Y92.722 E24.9617
G1 X199.981 Y92.858 E24.96627
G1 X199.981 Y136.434 E26.31663
G1 X199.924 Y136.57 E26.32119
G1 X199.812 Y136.682 E26.3261
G1 X199.676 Y136.739 E26.33067
G1 X156.981 Y136.739 E27.65373
G1 X156.981 Y138.434 E27.70625
G1 X156.924 Y138.57 E27.71082
G1 X156.812 Y138.682 E27.71573
G1 X156.676 Y138.739 E27.7203
G1 X154.1 Y138.739 E27.80012
G1 X153.964 Y138.682 E27.80469
G1 X153.852 Y138.57 E27.8096
G1 X153.795 Y138.434 E27.81417
G1 X153.795 Y94.858 E29.16453
G1 X153.852 Y94.722 E29.1691
G1 F3600 E28.4691
;MESH:/home/ubuntu/cloud-slicer-api/mysite/myapi/../temp/0b27ee8e8bed40e28160fcb2ad7bdd67something.blob.stl
G0 F3600 X163.445 Y108.602
;TYPE:WALL-OUTER
G1 F3600 E29.21067
G1 F1800 X163.851 Y108.188 E29.22864
G1 X164.098 Y107.7 E29.24559
G1 X164.184 Y107.128 E29.26351
G1 X164.09 Y106.575 E29.2809
G1 X163.831 Y106.077 E29.29829
G1 X163.43 Y105.683 E29.31571
G1 X162.943 Y105.436 E29.33263
G1 X162.386 Y105.348 E29.35011
G1 X161.818 Y105.443 E29.36795
G1 X161.33 Y105.691 E29.38492
G1 X160.923 Y106.104 E29.40288
G1 X160.676 Y106.607 E29.42025
G1 X160.59 Y107.147 E29.43719
G1 X160.685 Y107.716 E29.45507
G1 X160.933 Y108.204 E29.47203
G1 X161.346 Y108.611 E29.49
G1 X161.849 Y108.858 E29.50737
G1 X162.388 Y108.944 E29.52428
G1 X162.927 Y108.859 E29.54119
G1 X163.445 Y108.602 E29.55911
G0 F3600 X163.585 Y108.459
G1 F3600 E28.85911
G0 F3600 X160.678 Y131.703
G1 F3600 E29.60069
G1 F1800 X160.945 Y132.215 E29.61858
G1 X161.346 Y132.609 E29.636
G1 X161.834 Y132.856 E29.65295
G1 X162.404 Y132.942 E29.67081
G1 X162.945 Y132.856 E29.68779
G1 X163.456 Y132.591 E29.70563
G1 X163.843 Y132.202 E29.72263
G1 X164.098 Y131.701 E29.74005
G1 X164.186 Y131.146 E29.75746
G1 X164.098 Y130.589 E29.77494
G1 X163.831 Y130.078 E29.7928
G1 X163.43 Y129.681 E29.81029
G1 X162.927 Y129.434 E29.82766
G1 X162.388 Y129.349 E29.84456
G1 X161.833 Y129.436 E29.86197
G1 X161.346 Y129.683 E29.87889
G1 X160.925 Y130.104 E29.89734
G1 X160.674 Y130.609 E29.91482
G1 X160.593 Y131.162 E29.93214
G1 X160.678 Y131.703 E29.94911
G0 F3600 X160.77 Y131.88
G1 F3600 E29.24911
G0 F3600 X156.596 Y136.354
G1 F3600 E29.99069
G1 F1800 X156.596 Y138.354 E30.05266
G1 X154.18 Y138.354 E30.12753
G1 X154.18 Y94.938 E31.47293
G1 X156.18 Y94.938 E31.5349
G1 X156.18 Y92.938 E31.59688
G1 X199.596 Y92.938 E32.94227
G1 X199.596 Y136.354 E34.28767
G1 X156.596 Y136.354 E35.62017
G0 F3600 X156.596 Y136.554
G1 F3600 E34.92017
G0 F3600 X192.932 Y130.09
G1 F3600 E35.66175
G1 F1800 X192.675 Y130.609 E35.6797
G1 X192.593 Y131.162 E35.69702
G1 X192.678 Y131.701 E35.71393
G1 X192.933 Y132.202 E35.73135
G1 X193.332 Y132.601 E35.74884
G1 X193.834 Y132.856 E35.76628
G1 X194.404 Y132.942 E35.78415
G1 X194.943 Y132.856 E35.80106
G1 X195.446 Y132.601 E35.81854
G1 X195.851 Y132.188 E35.83646
G1 X196.098 Y131.7 E35.85341
G1 X196.184 Y131.128 E35.87134
G1 X196.09 Y130.576 E35.88869
G1 X195.843 Y130.088 E35.90564
G1 X195.43 Y129.683 E35.92356
G1 X194.942 Y129.435 E35.94053
G1 X194.37 Y129.351 E35.95844
G1 X193.818 Y129.444 E35.97579
G1 X193.332 Y129.691 E35.99268
G1 X192.932 Y130.09 E36.01019
G0 F3600 X192.844 Y130.269
G1 F3600 E35.31019
G0 F3600 X196.187 Y107.145
G1 F3600 E36.05176
G1 F1800 X196.09 Y106.575 E36.06968
G1 X195.831 Y106.077 E36.08708
G1 X195.431 Y105.683 E36.10447
G1 X194.942 Y105.435 E36.12147
G1 X194.37 Y105.351 E36.13938
G1 X193.818 Y105.444 E36.15673
G1 X193.332 Y105.691 E36.17362
G1 X192.932 Y106.091 E36.19115
G1 X192.676 Y106.607 E36.209
G1 X192.59 Y107.147 E36.22595
G1 X192.686 Y107.716 E36.24383
G1 X192.943 Y108.214 E36.26119
G1 X193.332 Y108.601 E36.2782
G1 X193.833 Y108.856 E36.29562
G1 X194.39 Y108.945 E36.3131
G1 X194.958 Y108.848 E36.33095
G1 X195.444 Y108.601 E36.34785
G1 X195.844 Y108.201 E36.36538
G1 X196.1 Y107.685 E36.38323
G1 X196.187 Y107.145 E36.40018
G0 F3600 X196.154 Y106.948
G0 X196.576 Y107.143
;TYPE:WALL-INNER
G1 F1800 X196.458 Y106.451 E36.42193
G1 X196.144 Y105.846 E36.44305
G1 X195.658 Y105.368 E36.46418
G1 X195.06 Y105.064 E36.48497
G1 X194.366 Y104.962 E36.5067
G1 X193.696 Y105.075 E36.52776
G1 X193.104 Y105.376 E36.54834
G1 X192.616 Y105.864 E36.56972
G1 X192.306 Y106.489 E36.59134
G1 X192.201 Y107.149 E36.61205
G1 X192.317 Y107.839 E36.63374
G1 X192.629 Y108.444 E36.65483
G1 X193.104 Y108.916 E36.67558
G1 X193.713 Y109.226 E36.69676
G1 X194.392 Y109.334 E36.71806
G1 X195.08 Y109.217 E36.73969
G1 X195.672 Y108.916 E36.76027
G1 X196.16 Y108.428 E36.78166
G1 X196.47 Y107.804 E36.80325
G1 X196.576 Y107.143 E36.82399
G1 F3600 E36.12399
G0 F3600 X192.616 Y129.863
G1 F3600 E36.86557
G1 F1800 X192.304 Y130.493 E36.88735
G1 X192.205 Y131.164 E36.90837
G1 X192.308 Y131.821 E36.92898
G1 X192.618 Y132.43 E36.95016
G1 X193.104 Y132.916 E36.97145
G1 X193.715 Y133.226 E36.99269
G1 X194.406 Y133.331 E37.01434
G1 X195.063 Y133.226 E37.03496
G1 X195.676 Y132.915 E37.05626
G1 X196.167 Y132.414 E37.078
G1 X196.469 Y131.818 E37.09871
G1 X196.573 Y131.124 E37.12045
G1 X196.459 Y130.454 E37.14151
G1 X196.157 Y129.858 E37.16222
G1 X195.657 Y129.367 E37.18393
G1 X195.06 Y129.064 E37.20468
G1 X194.366 Y128.962 E37.22642
G1 X193.696 Y129.075 E37.24747
G1 X193.104 Y129.376 E37.26805
G1 X192.616 Y129.863 E37.28942
G1 F3600 E36.58942
G0 F3600 X160.308 Y131.825
G1 F3600 E37.33099
G1 F1800 X160.633 Y132.446 E37.35271
G1 X161.119 Y132.925 E37.37386
G1 X161.716 Y133.226 E37.39458
G1 X162.406 Y133.331 E37.4162
G1 X163.067 Y133.225 E37.43695
G1 X163.686 Y132.904 E37.45856
G1 X164.158 Y132.43 E37.47929
G1 X164.468 Y131.821 E37.50046
G1 X164.575 Y131.146 E37.52164
G1 X164.467 Y130.467 E37.54295
G1 X164.144 Y129.847 E37.56461
G1 X163.656 Y129.364 E37.58589
G1 X163.044 Y129.064 E37.60701
G1 X162.388 Y128.96 E37.62759
G1 X161.713 Y129.066 E37.64876
G1 X161.118 Y129.368 E37.66944
G1 X160.609 Y129.877 E37.69175
G1 X160.303 Y130.493 E37.71306
G1 X160.205 Y131.164 E37.73408
G1 X160.308 Y131.825 E37.75481
G1 F3600 E37.05481
G0 F3600 X156.212 Y135.97
G1 F3600 E37.79638
G1 F1800 X156.212 Y137.97 E37.85836
G1 X154.564 Y137.97 E37.90943
G1 X154.564 Y95.322 E39.23102
G1 X156.564 Y95.322 E39.293
G1 X156.564 Y93.322 E39.35498
G1 X199.212 Y93.322 E40.67657
G1 X199.212 Y135.97 E41.99817
G1 X156.212 Y135.97 E43.33067
G1 F3600 E42.63067
G0 F3600 X163.674 Y108.917
G1 F3600 E43.37225
G1 F1800 X164.167 Y108.414 E43.39408
G1 X164.469 Y107.818 E43.41478
G1 X164.573 Y107.124 E43.43653
G1 X164.458 Y106.451 E43.45768
G1 X164.144 Y105.846 E43.47881
G1 X163.657 Y105.367 E43.49997
G1 X163.063 Y105.066 E43.52061
G1 X162.384 Y104.959 E43.54191
G1 X161.697 Y105.074 E43.5635
G1 X161.1 Y105.377 E43.58424
G1 X160.606 Y105.879 E43.60607
G1 X160.306 Y106.49 E43.62716
G1 X160.201 Y107.148 E43.64781
G1 X160.316 Y107.837 E43.66946
G1 X160.619 Y108.434 E43.6902
G1 X161.121 Y108.928 E43.71203
G1 X161.732 Y109.228 E43.73312
G1 X162.388 Y109.333 E43.75371
G1 X163.045 Y109.229 E43.77432
G1 X163.674 Y108.917 E43.79608
G0 F3600 X163.903 Y109.233
G1 F1800 X164.484 Y108.641 E43.82178
G1 X164.841 Y107.937 E43.84624
G1 X164.963 Y107.12 E43.87184
G1 X164.827 Y106.327 E43.89677
G1 X164.458 Y105.614 E43.92165
G1 X163.884 Y105.051 E43.94657
G1 X163.183 Y104.695 E43.97093
G1 X162.382 Y104.569 E43.99606
G1 X161.575 Y104.704 E44.02141
G1 X160.87 Y105.062 E44.04592
G1 X160.288 Y105.653 E44.07162
G1 X159.935 Y106.372 E44.09644
G1 X159.811 Y107.149 E44.12082
G1 X159.946 Y107.959 E44.14627
G1 X160.304 Y108.664 E44.17077
G1 X160.895 Y109.246 E44.19648
G1 X161.614 Y109.599 E44.2213
G1 X162.388 Y109.723 E44.24559
G1 X163.163 Y109.6 E44.2699
G1 X163.903 Y109.233 E44.2955
G1 F3600 E43.5955
G0 F3600 X159.937 Y131.947
G1 F3600 E44.33708
G1 F1800 X160.32 Y132.678 E44.36265
G1 X160.892 Y133.242 E44.38754
G1 X161.597 Y133.597 E44.412
G1 X162.408 Y133.721 E44.43743
G1 X163.189 Y133.595 E44.46194
G1 X163.916 Y133.218 E44.48732
G1 X164.474 Y132.659 E44.5118
G1 X164.839 Y131.941 E44.53676
G1 X164.965 Y131.146 E44.5617
G1 X164.837 Y130.345 E44.58684
G1 X164.458 Y129.616 E44.6123
G1 X163.882 Y129.046 E44.63741
G1 X163.161 Y128.693 E44.66228
G1 X162.388 Y128.57 E44.68654
G1 X161.593 Y128.695 E44.71148
G1 X160.889 Y129.052 E44.73594
G1 X160.292 Y129.649 E44.7621
G1 X159.931 Y130.377 E44.78728
G1 X159.816 Y131.166 E44.81199
G1 X159.937 Y131.947 E44.83648
G1 F3600 E44.13648
G0 F3600 X155.827 Y135.585
G1 F3600 E44.87806
G1 F1800 X155.827 Y137.585 E44.94003
G1 X154.949 Y137.585 E44.96724
G1 X154.949 Y95.707 E46.26498
G1 X156.949 Y95.707 E46.32695
G1 X156.949 Y93.707 E46.38893
G1 X198.827 Y93.707 E47.68667
G1 X198.827 Y135.585 E48.9844
G1 X155.827 Y135.585 E50.31691
G1 F3600 E49.61691
G0 F3600 X192.299 Y129.635
G1 F3600 E50.35848
G1 F1800 X191.932 Y130.377 E50.38413
G1 X191.816 Y131.166 E50.40885
G1 X191.937 Y131.941 E50.43315
G1 X192.303 Y132.659 E50.45813
G1 X192.875 Y133.232 E50.48322
G1 X193.596 Y133.597 E50.50826
G1 X194.407 Y133.721 E50.53368
G1 X195.183 Y133.597 E50.55803
G1 X195.907 Y133.23 E50.58319
G1 X196.484 Y132.641 E50.60874
G1 X196.841 Y131.937 E50.6332
G1 X196.963 Y131.12 E50.6588
G1 X196.829 Y130.332 E50.68357
G1 X196.472 Y129.628 E50.70803
G1 X195.884 Y129.051 E50.73356
G1 X195.178 Y128.692 E50.7581
G1 X194.362 Y128.572 E50.78366
G1 X193.574 Y128.705 E50.80842
G1 X192.875 Y129.06 E50.83272
G1 X192.299 Y129.635 E50.85794
G1 F3600 E50.15794
G0 F3600 X196.966 Y107.141
G1 F3600 E50.89951
G1 F1800 X196.827 Y106.327 E50.9251
G1 X196.458 Y105.614 E50.94998
G1 X195.886 Y105.052 E50.97483
G1 X195.178 Y104.692 E50.99944
G1 X194.362 Y104.572 E51.025
G1 X193.574 Y104.705 E51.04977
G1 X192.875 Y105.061 E51.07408
G1 X192.299 Y105.636 E51.0993
G1 X191.935 Y106.371 E51.12471
G1 X191.811 Y107.151 E51.14919
G1 X191.947 Y107.962 E51.17467
G1 X192.315 Y108.674 E51.19951
G1 X192.875 Y109.232 E51.224
G1 X193.593 Y109.597 E51.24896
G1 X194.394 Y109.724 E51.2741
G1 X195.202 Y109.587 E51.29949
G1 X195.901 Y109.231 E51.3238
